X:1
T:Nickel In The Slot
T:Nickel In The Slot
T:Zez Confrey
T:Copyright 1923 by Leo Feist Inc
T:Copyright 1923 by Leo Feist Inc
T:Copyright 1923 by Leo Feist Inc
T:Copyright 1923 by Leo Feist Inc
C:Zez Confrey
Z:Copyright 1923 by Leo Feist Inc
%%score { ( 1 3 ) | 2 }
L:1/8
Q:1/4=200
M:2/2
K:F
V:1 treble nm="Piano" snm="Pno."
V:3 treble 
V:2 treble 
V:1
"^INTRO"!f! .e.[ac'].g.e .[ac'].g.e.c | .A.[df].c.A .[df].c.A.F | .E!<(!.[Ac].G.E .[Ac].G.E.D!<)! | %3
 .C2 z2 !>![E^Gc]4 |:!mf! [Gd]^Gc!>![Ae] Gc!>![=Gd]^G | c!>![Ae]^Gc !>![=Gd]^Gc!>![Ae] | %6
 ^Ad!>![=Bf]A d!>![=Ae]^Ad | !>![=Bf]^Ad!>![=Ae] ^Ad !>![Bf]2 | !>![da]^dg!>![ec'] dg!>![=da]^d | %9
 g !>![ec']2 g !>![ec']2 (3cde | .f2 .g.[^gd'] .[ac']!<(!.c.[^c=g].[df] | %11
 .G.[^Gd].[Ac].C!<)! !>!_E4 | [Gd]^Gc!>![Ae] Gc!>![=Gd]^G | c!>![Ae]^Gc !>![=Gd]^Gc!>![Ae] | %14
 ^Ad!>![=Bf]A d!>![=Ae]^Ad | !>![=Bf]^Ad!>![=Ae] ^Ad !>![Bf]2 | !>![da]^dg!>![ec'] dg!>![=da]^d | %17
 g !>![ec']2 g !>![ec']4 | !>!c3 !>!d- d2 !>!e2 |1 .[FAf]2 z2 !>![ce^gc']2 z c :|2 .[FAf]2 z2 z4 |: %21
 z3/2 [ad']<ge/ (3([ad']ge) [ad']>g | e>[ad']g>e [dg]>cA>_A | d2 c!>!e- e4- | ec d2 c !>!e2 c | %25
 d2 c!>!e- e4- | ec d2 c !>!e2 c | z3/2 (g/ !>![Acf]2) !>![Acf]2 z3/2 (d'/ | %28
 !>![e^gc']2) !>![egc']2 z3/2 (g/ .[Acf]2) | z3/2 [ad']<ge/ (3([ad']ge) [ad']>g | %30
 e>[ad']g>e [dg]>cA>_A | d2 c!>!e- e4- | ec d2 c !>!e2 c | d2 c!>!e- e4- | ec d2 c !>!e3 | %35
 !>!c3 !>!d- d2 !>!e2 |1 .[FAf]2 z2 z4 :|2 .[FAf]2 z2 !>![ce^gc']2 z c || %38
!mf! [Gd]^Gc!>![Ae] Gc!>![=Gd]^G | c!>![Ae]^Gc !>![=Gd]^Gc!>![Ae] | ^Ad!>![=Bf]A d!>![=Ae]^Ad | %41
 !>![=Bf]^Ad!>![=Ae] ^Ad !>![Bf]2 | !>![da]^dg!>![ec'] dg!>![=da]^d | %43
 g !>![ec']2 g !>![ec']2 (3cde | .f2 .g.[^gd']!<(! .[ac'].c.[^c=g].[df]!<)! | %45
!<(! .G.[^Gd].[Ac].C!<)! !>!_E4 | [Gd]^Gc!>![Ae] Gc!>![=Gd]^G | c!>![Ae]^Gc !>![=Gd]^Gc!>![Ae] | %48
 ^Ad!>![=Bf]A d!>![=Ae]^Ad | !>![=Bf]^Ad!>![=Ae] ^Ad !>![Bf]2 | !>![da]^dg!>![ec'] dg!>![=da]^d | %51
 g !>![ec']2 g !>![ec']4 | !>!c3 !>!d- d2 !>!e2 | .[FAf]2 z2 z4 |: %54
[K:Ab]"^TRIO" z !>![A=d]GF !>![Ad]GF!>![A_d] | GF!>![Ad]G F!>![Ad]GF | !>![Ac]GF!>![EAc]- [EAc]4 | %57
 z EF!>![Gc]- [Gc]F !>![Gc]2 | z !>![Gcf]2 !>![G=B=e]- [GBe]G !>![_B_e]2 | %59
 z !>![Gcf]2 !>![G=B=e]- [GBe]G !>![_B_e]2 | (3z [=B,G][C=D] x .[Fc] .[GB] x .[=Bg].[ce] | %61
 (3z .[fc'].[gb] x .[=Bf] .[ce] x .[Fc].[G_B] | z !>![A=d]GF !>![Ad]GF!>![A_d] | %63
 GF!>![Ad]G F!>![Ad]GF | !>![Ac]GF!>![EAc]- [EAc]4 | z EF!>![Gc]- [Gc]F !>![Gc]2 | %66
 z !>![Gcf]2 !>![G=B=e]- [GBe]G !>![_B_e]2 | z !>![=E=A=d]2 !>![E_A_d]- [EAd]E !>![Gc]2 | %68
 z !>![_EGc]2 !>![=DG=B]- [DGB]_D !>![G_B]2 |1 .[CEA]2 z2 z4 :|2 .[CEA]2 z2 !>![Acea]2 z2 |] %71
V:2
 .[Cc]2 .[B,B]2 .[A,A]2 .[G,G]2 |[K:bass] .[F,F]2 .[_E,_E]2 .[D,D]2 .[C,C]2 | %2
 .[B,,B,]2 .[A,,A,]2 .[G,,G,]2 .[F,,F,]2 | .[E,,E,]2 z2 !>![C,,C,]4 |: F,,2 [A,CF]2 C,2 [A,CF]2 | %5
 F,,2 [A,CF]2 !>![D,D]2 !>![C,C]2 | [=B,,=B,]2 [G,B,F]2 G,,2 [G,B,F]2 | %7
 D,2 [G,=B,F]2 !>![G,,G,]2 !>![F,,F,]2 | [E,,E,]2 [_B,CE]2 C,2 [B,CE]2 | %9
 G,,2 [B,CE]2 C,2[K:treble] (3FG^G | .A2 z2 z4 | z8 |[K:bass] F,,2 [A,CF]2 C,2 [A,CF]2 | %13
 F,,2 [A,CF]2 !>![D,D]2 !>![C,C]2 | [=B,,=B,]2 [G,B,F]2 G,,2 [G,B,F]2 | %15
 D,2 [G,=B,F]2 !>![G,,G,]2 !>![F,,F,]2 | [E,,E,]2 [_B,CE]2 C,2 [B,CE]2 | %17
 G,,2 [B,CE]2 C,,2 [B,CE]2 | !>![E,,E,]3 !>![D,,D,]- [D,,D,]2 !>![C,,C,]2 |1 %19
 .[F,,F,]2 z2 !>![C,B,]2 z2 :|2 .[F,,F,]2 !>![A,,A,]2 !>![G,,G,]2 !>![F,,F,]2 |: %21
 [E,,E,]2 [B,CE]2 C,2 [B,CE]2 | [E,,E,]2 [B,CE]2 C,2 [B,CE]2 | F,,2 [A,CF]2 C,,2 [A,CF]2 | %24
 F,,2 [A,CF]2 !>![A,,A,]2 !>![F,,F,]2 | [E,,E,]2 [B,CE]2 C,2 [B,CE]2 | E,,2 [B,CE]2 C,2 [B,CE]2 | %27
 F,,2 !>![C,A,]2 !>![C,A,]2 F,,2 | .[C,^G,]2 !>![C,G,]2 .F,,2 .[C,A,]2 | %29
 [E,,E,]2 [B,CE]2 C,2 [B,CE]2 | [E,,E,]2 [B,CE]2 C,2 [B,CE]2 | F,,2 [A,CF]2 C,,2 [A,CF]2 | %32
 F,,2 [A,CF]2 !>![A,,A,]2 !>![F,,F,]2 | [E,,E,]2 [B,CE]2 C,2 [B,CE]2 | E,,2 [B,CE]2 C,2 [B,CE]2 | %35
 !>![E,,E,]3 !>![D,,D,]- [D,,D,]2 !>![C,,C,]2 |1 .[F,,F,]2 !>![A,,A,]2 !>![G,,G,]2 !>![F,,F,]2 :|2 %37
 .[F,,F,]2 z2 !>![C,B,]2 z2 || F,,2 [A,CF]2 C,2 [A,CF]2 | F,,2 [A,CF]2 !>![D,D]2 !>![C,C]2 | %40
 [=B,,=B,]2 [G,B,F]2 G,,2 [G,B,F]2 | D,2 [G,=B,F]2 !>![G,,G,]2 !>![F,,F,]2 | %42
 [E,,E,]2 [_B,CE]2 C,2 [B,CE]2 | G,,2 [B,CE]2 C,2[K:treble] (3FG^G | .A2 z2 z4 | z8 | %46
[K:bass] F,,2 [A,CF]2 C,2 [A,CF]2 | F,,2 [A,CF]2 !>![D,D]2 !>![C,C]2 | %48
 [=B,,=B,]2 [G,B,F]2 G,,2 [G,B,F]2 | D,2 [G,=B,F]2 !>![G,,G,]2 !>![F,,F,]2 | %50
 [E,,E,]2 [_B,CE]2 C,2 [B,CE]2 | G,,2 [B,CE]2 C,,2 [B,CE]2 | %52
 !>![E,,E,]3 !>![D,,D,]- [D,,D,]2 !>![C,,C,]2 | %53
 .[F,,F,]2 !>![D,,D,]2 !>![_E,,_E,]2 !>![=E,,=E,]2 |:[K:Ab] [F,,F,]2 [A,B,=D]2 B,,2 [A,B,D]2 | %55
 B,,2 [E,G,_D]2 E,,2 [E,G,D]2 | A,,2 [E,A,C]2 E,,2 [E,A,C]2 | A,,2 [E,A,C]2 [C,C]2 [=B,,=B,]2 | %58
 _B,,2 [E,G,D]2 E,,2 [E,G,D]2 | B,,2 [E,G,D]2 E,,2 [E,G,D]2 | (3!>!F, z z x2 x4 | x8 | %62
 [F,,F,]2 [A,B,=D]2 B,,2 [A,B,D]2 | B,,2 [E,G,_D]2 E,,2 [E,G,D]2 | A,,2 [E,A,C]2 E,,2 [E,A,C]2 | %65
 A,,2 [E,A,C]2 [C,C]2 [=B,,=B,]2 | _B,,2 [E,G,D]2 E,,2 [E,G,D]2 | G,,2 [B,C]2 [C,,C,]2 [B,C]2 | %68
 [E,,E,]2 [=E,,=E,]2 [F,,F,]2 [G,,G,]2 |1 .[A,,A,]2 !>![=D,,=D,]2 !>![E,,E,]2 !>![=E,,=E,]2 :|2 %70
 .[A,,A,]2 !>![E,,E,]2 !>![A,,,A,,]2 z2 |] %71
V:3
 x8 | x8 | x8 | x8 |: x8 | x8 | x8 | x8 | x8 | x8 | x8 | x8 | x8 | x8 | x8 | x8 | x8 | x8 | %18
 CGBD- DB [EG]2 |1 x8 :|2 x8 |: x8 | x8 | G^G cA- A4- | Ac G^G c A3 | ^FB cG- G4- | Gc ^FB c G3 | %27
 x8 | x8 | x8 | x8 | G^G cA- A4- | Ac G^G c A3 | ^FB cG- G4- | Gc ^FB c G3 | CGBD- DB [EG]2 |1 %36
 x8 :|2 x8 || x8 | x8 | x8 | x8 | x8 | x8 | x8 | x8 | x8 | x8 | x8 | x8 | x8 | x8 | %52
 CGBD- DB [EG]2 | x8 |:[K:Ab] x8 | x8 | x8 | x8 | x8 | x8 | x2 !>!E x2 !>!A x2 | %61
 !>!e x !>!A x2 !>!E x2 | x8 | x8 | x8 | x8 | x8 | x8 | x8 |1 x8 :|2 x8 |] %71

